svg/l/DZ.svg

<svg fill="none" height="24" viewBox="0 0 32 24" width="32" xmlns="http://www.w3.org/2000/svg" xmlns:xlink="http://www.w3.org/1999/xlink"><mask id="a" height="24" maskUnits="userSpaceOnUse" width="32" x="0" y="0"><path d="m0 0h32v24h-32z" fill="#fff"/></mask><g clip-rule="evenodd" fill-rule="evenodd" mask="url(#a)"><path d="m16 0h16v24h-16z" fill="#f7fcff"/><path d="m0 0h16v24h-16z" fill="#36a400"/><path d="m16.0001 15.9979c-2.4602-.4624-3.0121-2.5993-3.0121-4.1892 0-1.59.9128-3.53902 3.0121-3.90714 2.0993-.36813 5.0042 1.10463 5.0042 1.10463s-2.6781-2.98849-5.4815-2.98849-5.4815 2.10354-5.4815 5.791c0 3.6874 1.9211 6.1097 5.4815 6.1097 3.5603 0 5.3183-3.7579 5.3183-3.7579s-2.3808 2.2998-4.841 1.8374zm.9356-5.4412-1.7981-.013 1.7513 1.248-.6127 2.0149 1.8232-1.1008 2.0618 1.1521-1.0875-2.0492 1.6624-1.265-1.7025-.002-1.0044-1.77057z" fill="#f00"/></g></svg>

<svg width="32" height="24" viewBox="0 0 32 24" fill="none" xmlns="http://www.w3.org/2000/svg">
<mask id="mask0" mask-type="alpha" maskUnits="userSpaceOnUse" x="0" y="0" width="32" height="24">
<rect width="32" height="24" fill="white"/>
</mask>
<g mask="url(#mask0)">
<path fill-rule="evenodd" clip-rule="evenodd" d="M16 0H32V24H16V0Z" fill="#F7FCFF"/>
<path fill-rule="evenodd" clip-rule="evenodd" d="M0 0H16V24H0V0Z" fill="#36A400"/>
<path fill-rule="evenodd" clip-rule="evenodd" d="M16.0001 15.9979C13.5399 15.5355 12.988 13.3986 12.988 11.8087C12.988 10.2187 13.9008 8.26968 16.0001 7.90156C18.0994 7.53343 21.0043 9.00619 21.0043 9.00619C21.0043 9.00619 18.3262 6.0177 15.5228 6.0177C12.7194 6.0177 10.0413 8.12124 10.0413 11.8087C10.0413 15.4961 11.9624 17.9184 15.5228 17.9184C19.0831 17.9184 20.8411 14.1605 20.8411 14.1605C20.8411 14.1605 18.4603 16.4603 16.0001 15.9979ZM16.9357 10.5567L15.1376 10.5437L16.8889 11.7917L16.2762 13.8066L18.0994 12.7058L20.1612 13.8579L19.0737 11.8087L20.7361 10.5437L19.0336 10.5417L18.0292 8.77113L16.9357 10.5567Z" fill="#FF0000"/>
</g>
</svg>
